assets/icons/delivered.svg

<svg width="27" height="30" viewBox="0 0 27 30" fill="none" xmlns="http://www.w3.org/2000/svg">
<path d="M24.819 18.0766V7.73926L12.5462 0.653564L0.273438 7.73926V21.9106L12.5462 28.9963L15.8111 27.1114C16.9707 28.2969 18.5869 29.034 20.3723 29.034C23.8919 29.034 26.7553 26.1706 26.7553 22.651C26.7553 20.8588 26.0125 19.2371 24.819 18.0766ZM12.5462 2.57623L22.3213 8.2199L18.2664 10.5611L8.49124 4.9174L12.5462 2.57623ZM11.7136 26.5929L1.93857 20.9493V9.66198L11.7136 15.3056V26.5929ZM2.77114 8.2199L6.82611 5.87873L16.6012 11.5224L12.5462 13.8636L2.77114 8.2199ZM13.3788 26.5929V15.3056L23.1539 9.66192V16.9068C22.3126 16.4977 21.3688 16.2681 20.3723 16.2681C16.8527 16.2681 13.9893 19.1315 13.9893 22.6511C13.9893 23.783 14.2858 24.8469 14.8048 25.7697L13.3788 26.5929ZM20.3723 27.3689C17.7709 27.3689 15.6544 25.2524 15.6544 22.651C15.6544 20.0496 17.7709 17.9332 20.3723 17.9332C22.9737 17.9332 25.0902 20.0496 25.0902 22.651C25.0902 25.2524 22.9738 27.3689 20.3723 27.3689Z" fill="#C5C5C5"/>
<path d="M22.3441 20.2323L19.6178 22.9736L18.3966 21.7648L17.2252 22.9481L19.627 25.3257L23.5247 21.4064L22.3441 20.2323Z" fill="#C5C5C5"/>
</svg>

<svg width="27" height="30" fill="none" xmlns="http://www.w3.org/2000/svg"><path d="M24.819 18.077V7.739L12.546.654.273 7.739v14.172l12.273 7.085 3.265-1.885a6.364 6.364 0 004.561 1.923 6.39 6.39 0 006.383-6.383 6.364 6.364 0 00-1.936-4.574zm-12.273-15.5l9.775 5.643-4.055 2.341-9.775-5.644 4.055-2.34zm-.832 24.016l-9.775-5.644V9.662l9.775 5.644v11.287zM2.77 8.22l4.055-2.341 9.775 5.643-4.055 2.342L2.771 8.22zm10.61 18.373V15.306l9.775-5.644v7.245a6.344 6.344 0 00-2.782-.639 6.39 6.39 0 00-6.383 6.383c0 1.132.297 2.196.816 3.119l-1.426.823zm6.993.776a4.723 4.723 0 01-4.718-4.718 4.723 4.723 0 014.718-4.718 4.723 4.723 0 014.718 4.718 4.723 4.723 0 01-4.718 4.718z" fill="#C5C5C5"/><path d="M22.344 20.232l-2.726 2.742-1.221-1.21-1.172 1.184 2.402 2.378 3.898-3.92-1.18-1.174z" fill="#C5C5C5"/></svg>
